X:1
T:Sing Praise to Our Creator
T:Tune: John B. Dykes, 1877 Text under copyright; for copyrighted material see Psalter Hymnal 147
T:76 76 D HARTFORD www.hymnary.org/text/sing_praise_to_our_creator_how_good
T:This music is in the public domain. You may freely use this score for personal and congregational worship. If you reproduce the score, please credit Hymnary.org as the source. 
T:Sing Praise to Our Creator
T:This music is in the public domain. You may freely use this score for personal and congregational worship. If you reproduce the score, please credit Hymnary.org as the source. 
Z:This music is in the public domain. You may freely use this score for personal and congregational worship. If you reproduce the score, please credit Hymnary.org as the source.
%%score ( 1 2 ) ( 3 4 )
L:1/8
M:4/4
K:Eb
V:1 treble nm="SOPRANO ALTO" snm="S. A."
V:2 treble 
V:3 bass nm="TENOR BASS" snm="T. B."
V:4 bass 
V:1
 G2 | F2 G2 A2 c2 | B4 G2 G2 | B3 G | E2 F2 | G6 G2 | F2 G2 A2 c2 | B4 G2 B2 | e3 d c2 d2 | B6 B2 | %10
 B3 F F2 G2 | F4 E2 e2 | e3 B B2 c2 | (B4 A2) G2 | G2 F2 |1 G2 A2 | (B2 c2) d2 e2 | G3 A F2 B2 | %18
 E6 x2 |] %19
V:2
 E2 | D2 E2 D2 D2 | E4 E2 E2 | E3 E | E2 D2 | E6 E2 | D2 E2 D2 D2 | E4 E2 F2 | G3 F E2 E2 | D6 E2 | %10
 D3 D D2 D2 | D4 E2 A2 | G3 G G2 G2 | (G4 F2) E2 | E2 E2 |1 D2 D2 | E4 E2 E2 | E3 E E2 D2 | %18
 B,6 x2 |] %19
V:3
 B,2 | B,2 B,2 B,2 B,2 | B,4 B,2 C2 | G,3 B, | G,2 B,2 | B,6 B,2 | B,2 B,2 B,2 B,2 | B,4 B,2 B,2 | %8
 B,3 B, =A,2 A,2 | F,6 G,2 | A,3 A, A,2 B,2 | A,4 G,2 C2 | _D3 D D2 D2 | (_D4 C2) B,2 | C2 C2 |1 %15
 B,2 B,2 | B,4 =A,2 A,2 | B,3 C B,2 A,2 | G,6 x2 |] %19
V:4
 E,2 | A,2 G,2 F,2 A,2 | G,4 E,2 C,2 | B,,3 B,, | B,,2 B,,2 | E,6 G,2 | A,2 G,2 F,2 A,2 | %7
 G,4 E,2 D,2 | C,3 C, F,2 F,2 | B,,6 B,,2 | B,,3 B,, B,,2 B,,2 | B,,4 E,2 E,2 | E,3 E, E,2 E,2 | %13
 (E,4 F,2) G,2 | A,2 A,2 |1 A,2 A,2 | G,4 C,2 C,2 | B,,3 B,, B,,2 B,,2 | E,6 x2 |] %19

